X:213
T: Der Jger und das Mgdelein (2a), S. 30
N: T0101
O: Luxemburg
S: Singendes Volk, Esch-Alzette 1937 posth.]
N: STRASSEN, gesungen von Fau Witry am 3.1.1933;
N: die gleiche Melodie (2b) aus HEFFINGEN, gesungen von
N: Frau Ewen am 10.3.1933
R: "erzhlende Lieder"]
M: 4/4
L: 1/8
K: G
Gc | d3ed2cA | B3cB2
d2 | e2d2c2Ac | B4z2
Bc | d2d2d2g2 | e3de2
cd | d4c2Ac | B4z2
Bc | d2d2d2g2 | e3de2
cd | d4c2Ac | B4z2

